!!!COM:	Martini, Johannes
!!!CDT:	~1440///-~1497//
!!!OPR:	Missa Ma bouche rit
!!!ONM:	5
!!!OTL:	Agnus Dei
!!!AGN:	Mass; Agnus Dei
!!!SCT:	Mar1010e
!!!SCA:	Mar1010e
!!!voices:	4
**kern	**kern	**kern	**kern
*staff4	*staff3	*staff2	*staff1
*Ivox	*Ivox	*Ivox	*Ivox
*I"Bassus	*I"Tenor	*I"Contratenor	*I"Superius
*I'B	*I'T	*I'Ct	*I'S
*>[A,B,A]	*>[A,B,A]	*>[A,B,A]	*>[A,B,A]
*>A	*>A	*>A	*>A
*clefF4	*clefGv2	*clefGv2	*clefG2
*k[]	*k[]	*k[]	*k[]
*M2/1	*M2/1	*M2/1	*M2/1
*met(C)	*met(C)	*met(C)	*met(C)
!!section: Agnus Dei I, III
!!!OMD: Agnus Dei I, III
=1-	=1-	=1-	=1-
0r	0r	0A	1.a
.	.	.	2g/
=2	=2	=2	=2
1r	0r	1A	1f
[1A	.	[1c	1e
=3	=3	=3	=3
2A\]	0r	2c\]	2c/
2G\	.	2B\	2e/
1F	.	2c\	2f/
.	.	2d\	[2a/
=4	=4	=4	=4
1E	1r	1.e	2a/]
.	.	.	2g#i/
2r	[1A	.	[1a
2D\	.	[2f\	.
=5	=5	=5	=5
2F\	2A/]	2f\]	2a/]
2G\	2G/	1e	2b\
1A	1F	.	2cc\
.	.	2d\	4b\
.	.	.	4a/
=6	=6	=6	=6
1B	1E	1e	1g
1c	1A	1f	1cc
=7	=7	=7	=7
2d\	1.G	1.g	1.b
2.e\	.	.	.
4A\	.	.	.
[2d\	2F/	[2a\	2a/
=8	=8	=8	=8
2d\]	1E	2a\]	2b\
2c\	.	1g	2g/
1d	1D	.	1a
.	.	2f#i\	.
=9	=9	=9	=9
1G	2r	1g	1.g
.	1G	.	.
2E\	.	1r	.
2F\	2A/	.	4f/
.	.	.	4e/
=10	=10	=10	=10
2G\	2B\	0r	2d/
2E\	1c	.	1g
1D	.	.	.
.	2B\	.	2f/
=11	=11	=11	=11
1C	2.c\	1c	2e/
.	.	.	4d/
.	4B\	.	4c/
1r	1G	1d	2.B/
.	.	.	4A/
=12	=12	=12	=12
0C	1r	2.c\	1c
.	.	4B\	.
.	[1e	2A/	2r
.	.	2G/	[2g/
=13	=13	=13	=13
1C	2e\]	0g	2g/]
.	2c\	.	2a/
1G	2.d\	.	2b\
.	.	.	4a/
.	4c\	.	4b\
=14	=14	=14	=14
1F	1A	1a	1cc
2r	1G	2d\	1b
2G\	.	2e\	.
=15	=15	=15	=15
2D\	1d	2f\	2a/
1G	.	2g\	2b\
.	2B\	2d\	2.g/
2C/	[2c\	[2e\	.
.	.	.	4f/
=16	=16	=16	=16
1E	2c\]	4e\]	4e/
.	.	4B\	4d/
.	2G/	2c\	1g
1D	1A	1d	.
.	.	.	2f#i/
=17	=17	=17	=17
0r	1G	2r	1g
.	.	2e\	.
.	2A/	2f\	1r
.	2B\	[2g\	.
=18	=18	=18	=18
0r	2c\	4g\]	0r
.	.	4c\	.
.	1G	2e\	.
.	.	4d\	.
.	.	4c\	.
.	2E/	[2c\	.
=19	=19	=19	=19
0r	1D	2c\]	0r
.	.	2B\	.
.	1C	1c	.
=20	=20	=20	=20
1C	1c	0e	0g
1E	2G/	.	.
.	[2c\	.	.
=21	=21	=21	=21
1F	2c\]	1A	1a
.	2d\	.	.
2E\	1e	2B\	2g/
2C/	.	2c\	2a/
=22	=22	=22	=22
2G\	2d\	2d\	2b\
2A\	2c\	2f\	1cc
1G	1d	1g	.
.	.	.	2b\
=23	=23	=23	=23
1C	1c	1e	1cc
2G\	2B\	2d\	2dd\
2A\	2c\	2c\	2cc\
=24	=24	=24	=24
2.F\	2d\	1f	2a/
.	1d	.	2b\
4G\	.	.	.
1A	.	1e	4cc\
.	.	.	2a/
.	2c#i\	.	.
.	.	.	4g/
=25	=25	=25	=25
2D\	1.d	1d	2f/
1G	.	.	2.b-i\
.	.	2g\	.
.	.	.	4a/
2A\	2c\	2f\	[2a/
=26	=26	=26	=26
1E	1B	1e	2a/]
.	.	.	2g/
1F	1A	1c	1a
=27	=27	=27	=27
2.G\	2r	2B\	0r
.	2E/	2c\	.
4F\	.	.	.
2D\	2F/	2d\	.
2C/	2G/	2e\	.
=28	=28	=28	=28
2c\	2A/	2f\	0r
4B\	2B\	4g\	.
4G\	.	2g\	.
2A\	4c\	.	.
.	2c\	4f\	.
2G\	.	2g\	.
.	4B\	.	.
=29	=29	=29	=29
1C	1c	2r	2.e/
.	.	2g\	.
.	.	.	4f/
2r	2B\	2d\	2g/
[2F\	2c\	[2f\	[2a/
=30	=30	=30	=30
2F\]	2d\	2f\]	2a/]
2G\	4c\	2e\	2b\
.	4B\	.	.
2A\	1A	1f	2.cc\
2c\	.	.	.
.	.	.	4a/
=31	=31	=31	=31
2B\	2G/	2.g\	2b\
2G\	2E/	.	2cc\
.	.	4e\	.
1A	2D/	2f\	2dd\
.	2F/	[2d\	[2a/
=32	=32	=32	=32
1r	1E	2d\]	2a/]
.	.	2c#i\	2g/
1D	2D/	1d	2f/
.	[2F/	.	[2a/
=33	=33	=33	=33
2.F\	4F/]	1c	2a/]
.	4G/	.	.
.	2A/	.	4g/
4E\	.	.	4f/
1C	2G/	2.g\	1e
.	[2c\	.	.
.	.	4f\	.
=34	=34	=34	=34
1G	2c\]	2e\	2r
.	2B\	2d\	1g
2C/	2c\	2e\	.
2D\	[2A/	[2d\	[2f/
=35	=35	=35	=35
2F\	2A/]	4d\]	2f/]
.	.	4c\	.
2G\	2G/	2B\	1e
1A	1F	2c\	.
.	.	2A/	2d/
=36	=36	=36	=36
0Gl	0El	0Bl	0el
!!LO:LB:i:g=z
=37||	=37||	=37||	=37||
*>B	*>B	*>B	*>B
*clefF4	*clefGv2	*clefGv2	*clefG2
*k[]	*k[]	*k[]	*k[]
*M2/1	*M2/1	*M2/1	*M2/1
*met(C|)	*met(C|)	*met(C|)	*met(C|)
!!section: Agnus Dei II
!!!OMD: Agnus Dei II
2.E\	0r	0r	0r
4F\	.	.	.
2.G\	.	.	.
4A\	.	.	.
=38	=38	=38	=38
2B\	0r	0r	1r
1c	.	.	.
.	.	.	2e/
2A\	.	.	2f/
=39	=39	=39	=39
2B\	0r	0r	2.g/
2c\	.	.	.
.	.	.	4a/
2G\	.	.	2b\
[2A\	.	.	[2cc\
=40	=40	=40	=40
2A\]	0r	0r	2cc\]
2F\	.	.	2a/
1E	.	.	2b\
.	.	.	2cc\
=41	=41	=41	=41
1c	0r	0r	2g/
.	.	.	1a
1d	.	.	.
.	.	.	2f/
=42	=42	=42	=42
1e	0r	0r	2e/
.	.	.	2cc\
2r	.	.	2dd\
[2E\	.	.	[2ee\
=43	=43	=43	=43
4E\]	0r	0r	2ee\]
4F\	.	.	.
2G\	.	.	2dd\
2A\	.	.	2cc\
2G\	.	.	4b\
.	.	.	4a/
=44	=44	=44	=44
2c\	0r	0r	2g/
2A\	.	.	1a
1B	.	.	.
.	.	.	2g#i/
=45	=45	=45	=45
2.A\	0r	0r	1a
4G\	.	.	.
2E\	.	.	1cc
[2A\	.	.	.
=46	=46	=46	=46
2A\]	0r	0r	1b
2G\	.	.	.
[1A	.	.	2.e/
.	.	.	4d/
=47	=47	=47	=47
1A]	0r	0r	2e/
.	.	.	2.f/
2D\	.	.	.
.	.	.	4e/
[2G\	.	.	4d/
.	.	.	4c/
=48	=48	=48	=48
2G\]	0r	0r	2B/
2A\	.	.	1e
1B	.	.	.
.	.	.	2d/
=49	=49	=49	=49
2.c\	0r	0r	2c/
.	.	.	2.g/
4B\	.	.	.
1G	.	.	.
.	.	.	4a/
.	.	.	2b\
=50	=50	=50	=50
2r	0r	0r	2cc\
1e	.	.	4b\
.	.	.	4a/
.	.	.	2g/
2c\	.	.	2a/
=51	=51	=51	=51
2d\	0r	0r	2d/
2B\	.	.	1g
1A	.	.	.
.	.	.	2f#i/
=52	=52	=52	=52
0r	0r	2G/	1g
.	.	1c	.
.	.	.	1r
.	.	2d\	.
=53	=53	=53	=53
0r	0r	2e\	0g
.	.	4d\	.
.	.	4c\	.
.	.	2B\	.
.	.	[2c\	.
=54	=54	=54	=54
0r	0r	2c\]	0a
.	.	2F/	.
.	.	2.c\	.
.	.	4A/	.
=55	=55	=55	=55
0r	0r	2B\	2g/
.	.	2c\	2a/
.	.	2G/	2.b\
.	.	[2g\	.
.	.	.	4a/
=56	=56	=56	=56
0r	0r	2g\]	2g/
.	.	4f\	1cc
.	.	4e\	.
.	.	1d	.
.	.	.	2b\
=57	=57	=57	=57
0r	0r	2.c\	2cc\
.	.	.	2a/
.	.	4B\	.
.	.	1G	2b\
.	.	.	2cc\
=58	=58	=58	=58
1B	0r	0r	2dd\
.	.	.	2.g/
1c	.	.	.
.	.	.	4f/
.	.	.	4e/
.	.	.	4d/
=59	=59	=59	=59
2d\	0r	0r	1f
1d	.	.	.
.	.	.	1e
2c#i\	.	.	.
=60	=60	=60	=60
2d\	0r	0r	2.d/
2B\	.	.	.
.	.	.	4e/
2A\	.	.	4f/
.	.	.	4g/
2c\	.	.	2a/
=61	=61	=61	=61
2d\	0r	0r	4b\
.	.	.	4cc\
2f\	.	.	2dd\
1e	.	.	2cc\
.	.	.	[2b\
=62	=62	=62	=62
2d\	0r	0r	4b\]
.	.	.	4a/
2c\	.	.	1a
1B	.	.	.
.	.	.	2g#i/
=63	=63	=63	=63
0r	0r	1A	1a
.	.	2.E/	1r
.	.	4F/	.
=64	=64	=64	=64
2.E\	0r	2G/	0r
.	.	2A/	.
4F\	.	.	.
2G\	.	2B\	.
2A\	.	2c\	.
=65	=65	=65	=65
2B\	0r	2d\	0r
1c	.	2e\	.
.	.	1d	.
2B\	.	.	.
=66	=66	=66	=66
1c	0r	1c	2e/
.	.	.	2.g/
2B\	.	1r	.
.	.	.	4a/
2G\	.	.	2b\
=67	=67	=67	=67
2.A\	0r	0r	2cc\
.	.	.	2c/
4G\	.	.	.
2E\	.	.	2.e/
[2G\	.	.	.
.	.	.	4f/
=68	=68	=68	=68
4G\]	0r	0r	2g/
4F\	.	.	.
2D\	.	.	2a/
2.F\	.	.	2A/
.	.	.	[2c/
4E\	.	.	.
=69	=69	=69	=69
2C/	0r	0r	4c/]
.	.	.	4d/
2c\	.	.	2e/
2.A\	.	.	2f/
.	.	.	[2e/
4G\	.	.	.
=70	=70	=70	=70
2E\	0r	0r	4e/]
.	.	.	4c/
2F\	.	.	2d/
2C/	.	.	2e/
2D\	.	.	2A/
=71	=71	=71	=71
2E\	0r	0r	4c/
.	.	.	4B/
2G\	.	.	2e/
2F\	.	.	2d/
[2A\	.	.	[2f/
=72	=72	=72	=72
2A\]	0r	0r	4f/]
.	.	.	4e/
2G\	.	.	1e
1F	.	.	.
.	.	.	2d/
=73	=73	=73	=73
0El	0r	0Bl	0el
!!LO:TX:i:Y=40:rj:t=[Agnus Dei I ut supra]
=||	=||	=||	=||
*-	*-	*-	*-
!!!RDF**kern: l=long note in original notation
!!!RDF**kern: i=editorial accidental
!!!ENC:	Chris Gage 10-22-2014
!!!END:	2015/03/07/
!!!EED:	Jesse Rodin
!!!EEV:	2015/03/09/
!!!ONB:	Translated from MusicXML and edited on 2015/03/09/ by Craig Sapp
!!muse2ps: T^@{OPR}^u^@{ONM}{. }@{OTL}^C^@{COM}^i2I150v85,85,85,150Q16
